resources/svg/alarm-fill.svg

<svg fill="currentColor" viewBox="0 0 24 24" xmlns="http://www.w3.org/2000/svg"><path d="M11.9991 22.0001C7.02858 22.0001 2.99914 17.9707 2.99914 13.0001C2.99914 8.02956 7.02858 4.00012 11.9991 4.00012C16.9697 4.00012 20.9991 8.02956 20.9991 13.0001C20.9991 17.9707 16.9697 22.0001 11.9991 22.0001ZM12.9991 13.0001V8.00012H10.9991V15.0001H15.9991V13.0001H12.9991ZM1.74609 6.2826L5.28163 2.74707L6.69584 4.16128L3.16031 7.69682L1.74609 6.2826ZM18.7167 2.74707L22.2522 6.2826L20.838 7.69682L17.3024 4.16128L18.7167 2.74707Z"/></svg>

<svg xmlns="http://www.w3.org/2000/svg" viewBox="0 0 24 24" fill="currentColor">
    <g>
        <path fill="none" d="M0 0h24v24H0z"/>
        <path d="M12 22a9 9 0 1 1 0-18 9 9 0 0 1 0 18zm1-9V8h-2v7h5v-2h-3zM1.747 6.282l3.535-3.535 1.415 1.414L3.16 7.697 1.747 6.282zm16.97-3.535l3.536 3.535-1.414 1.415-3.536-3.536 1.415-1.414z"/>
    </g>
</svg>
